X: 7474
T: Cnocán An Teampaill
R: jig
M: 6/8
K: Dmixolydian
d|:cAG A2A|ABG A2d|cAG A2A|ABA GED:|
|:EDE c2E|c2E GED|EDE cde|dcA GED:|

